icons/circle/48/rider.svg

<svg xmlns="http://www.w3.org/2000/svg" viewBox="0 0 48 48">
  <defs>
    <linearGradient y2="46" y1="2" x2="24" x1="24" gradientUnits="userSpaceOnUse" id="linearGradient4172">
      <stop offset="0" style="stop-color:#f9ad07;stop-opacity:1" />
      <stop offset="1" style="stop-color:#d4068a;stop-opacity:1" />
    </linearGradient>
  </defs>
  <g>
    <path d="m 36.31 5 c 5.859 4.062 9.688 10.831 9.688 18.5 c 0 12.426 -10.07 22.5 -22.5 22.5 c -7.669 0 -14.438 -3.828 -18.5 -9.688 c 1.037 1.822 2.306 3.499 3.781 4.969 c 4.085 3.712 9.514 5.969 15.469 5.969 c 12.703 0 23 -10.298 23 -23 c 0 -5.954 -2.256 -11.384 -5.969 -15.469 c -1.469 -1.475 -3.147 -2.744 -4.969 -3.781 z m 4.969 3.781 c 3.854 4.113 6.219 9.637 6.219 15.719 c 0 12.703 -10.297 23 -23 23 c -6.081 0 -11.606 -2.364 -15.719 -6.219 c 4.16 4.144 9.883 6.719 16.219 6.719 c 12.703 0 23 -10.298 23 -23 c 0 -6.335 -2.575 -12.06 -6.719 -16.219 z" style="opacity:0.05" />
    <path d="m 41.28 8.781 c 3.712 4.085 5.969 9.514 5.969 15.469 c 0 12.703 -10.297 23 -23 23 c -5.954 0 -11.384 -2.256 -15.469 -5.969 c 4.113 3.854 9.637 6.219 15.719 6.219 c 12.703 0 23 -10.298 23 -23 c 0 -6.081 -2.364 -11.606 -6.219 -15.719 z" style="opacity:0.1" />
    <path d="m 31.25 2.375 c 8.615 3.154 14.75 11.417 14.75 21.13 c 0 12.426 -10.07 22.5 -22.5 22.5 c -9.708 0 -17.971 -6.135 -21.12 -14.75 a 23 23 0 0 0 44.875 -7 a 23 23 0 0 0 -16 -21.875 z" style="opacity:0.2" />
  </g>
  <path d="M 47,24 A 23,23 0 0 1 24,47 23,23 0 0 1 1,24 23,23 0 0 1 24,0.9999996 23,23 0 0 1 47,24 Z" style="opacity:1;fill:url(#linearGradient4172);fill-opacity:1" />
  <g>
    <path d="m 40.03 7.531 c 3.712 4.084 5.969 9.514 5.969 15.469 0 12.703 -10.297 23 -23 23 c -5.954 0 -11.384 -2.256 -15.469 -5.969 4.178 4.291 10.01 6.969 16.469 6.969 c 12.703 0 23 -10.298 23 -23 0 -6.462 -2.677 -12.291 -6.969 -16.469 z" style="opacity:0.1" />
  </g>
  <g>
    <path d="m 12,11.999999 26,0 L 38,38 12,38 Z" style="fill:#000000;fill-opacity:0.1" />
    <path d="m 11,11 26,0 0,26 -26,0 z" style="fill:#303030;fill-opacity:1" />
    <path style="opacity:1;fill:#f9f9f9;fill-opacity:1;" d="m 13,32 10,0 0,2 -10,0 z" />
    <path d="m 15,14 0,11 2,0 0,-3.999977 1.599609,-0.002 L 21,25 23,25 20.5,20.832031 C 22.04255,20.466949 23,19.455269 23,17.548828 L 23,17.5 C 23,15.273147 21.914135,14 19.326172,14 Z m 9,0 0,11 3,0 1.554688,-0.01758 C 30.491088,24.959422 33,23.017291 33,19.525391 l 0,-0.05078 C 33,16.016609 30.913172,14 28.326172,14 Z m -7,2 2,0 c 1.203704,0 2,0.391277 2,1.47461 l 0,0.05078 C 21,18.428168 20.203703,19.001176 19,19 l -2,-2.4e-5 z m 9,4.7e-5 2,0 c 1.204,0 3,1.016609 3,3.474609 l 0,0.05078 C 31,22.017251 29.2037,23 28,23 l -2,0 z" style="fill:#f9f9f9;fill-opacity:1" />
  </g>
</svg>

<svg xmlns="http://www.w3.org/2000/svg" viewBox="0 0 48 48">
  <defs>
    <linearGradient y2="46" y1="2" x2="24" x1="24" gradientUnits="userSpaceOnUse" id="a">
      <stop offset="0" stop-color="#f9ad07"/>
      <stop offset="1" stop-color="#d4068a"/>
    </linearGradient>
  </defs>
  <path d="M36.31 5c5.859 4.062 9.688 10.831 9.688 18.5 0 12.426-10.07 22.5-22.5 22.5-7.669 0-14.438-3.828-18.5-9.688a23.24 23.24 0 0 0 3.781 4.969 22.923 22.923 0 0 0 15.469 5.969c12.703 0 23-10.298 23-23a22.92 22.92 0 0 0-5.969-15.469A23.216 23.216 0 0 0 36.31 5zm4.969 3.781A22.911 22.911 0 0 1 47.498 24.5c0 12.703-10.297 23-23 23a22.909 22.909 0 0 1-15.719-6.219C12.939 45.425 18.662 48 24.998 48c12.703 0 23-10.298 23-23 0-6.335-2.575-12.06-6.719-16.219z" opacity=".05"/>
  <path d="M41.28 8.781a22.923 22.923 0 0 1 5.969 15.469c0 12.703-10.297 23-23 23A22.92 22.92 0 0 1 8.78 41.281 22.911 22.911 0 0 0 24.499 47.5c12.703 0 23-10.298 23-23A22.909 22.909 0 0 0 41.28 8.781z" opacity=".1"/>
  <path d="M31.25 2.375C39.865 5.529 46 13.792 46 23.505c0 12.426-10.07 22.5-22.5 22.5-9.708 0-17.971-6.135-21.12-14.75a23 23 0 0 0 44.875-7 23 23 0 0 0-16-21.875z" opacity=".2"/>
  <path d="M47 24a23 23 0 0 1-23 23A23 23 0 0 1 1 24 23 23 0 0 1 24 1a23 23 0 0 1 23 23z" fill="url(#a)"/>
  <g>
    <path d="M40.03 7.531A22.922 22.922 0 0 1 45.999 23c0 12.703-10.297 23-23 23A22.92 22.92 0 0 1 7.53 40.031C11.708 44.322 17.54 47 23.999 47c12.703 0 23-10.298 23-23 0-6.462-2.677-12.291-6.969-16.469z" opacity=".1"/>
  </g>
  <g>
    <path d="M12 12h26v26H12z" fill-opacity=".1"/>
    <path d="M11 11h26v26H11z" fill="#303030"/>
    <path d="M13 32h10v2H13zM15 14v11h2v-4l1.6-.002L21 25h2l-2.5-4.168c1.543-.365 2.5-1.377 2.5-3.283V17.5c0-2.227-1.086-3.5-3.674-3.5zm9 0v11h3l1.555-.018C30.49 24.96 33 23.017 33 19.525v-.05C33 16.017 30.913 14 28.326 14zm-7 2h2c1.204 0 2 .391 2 1.475v.05c0 .903-.796 1.476-2 1.475h-2zm9 0h2c1.204 0 3 1.017 3 3.475v.05C31 22.017 29.204 23 28 23h-2z" fill="#f9f9f9"/>
  </g>
</svg>
